src/main/resources/icons/AllIcons/debugger/db_verified_no_suspend_breakpoint_dark.svg

<!-- Copyright 2000-2021 JetBrains s.r.o. Use of this source code is governed by the Apache 2.0 license that can be found in the LICENSE file. -->
<svg xmlns="http://www.w3.org/2000/svg" width="12" height="12" viewBox="0 0 12 12">
  <g fill="none" fill-rule="evenodd">
    <path fill="#F0A732" d="M8.37318536,1.03693453 L7.47951278,1.8456667 L6.66900324,1.11219322 C6.48513239,0.945798643 6.24599493,0.853658299 5.99801179,0.853658299 L5,0.853658299 C4.44771525,0.853658299 4,1.30137355 4,1.8536583 L4,2.7568126 C4,3.03934809 4.11951834,3.30869878 4.32900855,3.49827768 L6.80779591,5.74146508 C7.18872475,6.08618798 7.7688909,6.08617705 8.14980675,5.74143981 L10.8111692,3.33284812 C11.2500442,4.12282749 11.5,5.0322236 11.5,6 C11.5,9.03756612 9.03756612,11.5 6,11.5 C2.96243388,11.5 0.5,9.03756612 0.5,6 C0.5,2.96243388 2.96243388,0.5 6,0.5 C6.84986038,0.5 7.65470015,0.692756159 8.37318536,1.03693453 Z"/>
    <polygon fill="#AFB1B3" fill-rule="nonzero" points="12 .908 7.479 5 5 2.757 5 1.854 5.998 1.854 7.48 3.194 11.009 0 12 0"/>
  </g>
</svg>

<svg xmlns="http://www.w3.org/2000/svg" width="12" height="12" viewBox="0 0 12 12"><rect id="frame" width="12" height="12" fill="none"/><g fill="none" fill-rule="evenodd"><path fill="#F0A732" d="M8.373 1.037l-.893.809-.811-.734a1 1 0 0 0-.671-.258H5a1 1 0 0 0-1 1v.903a1 1 0 0 0 .329.741l2.479 2.243a1 1 0 0 0 1.342 0l2.661-2.408a5.5 5.5 0 1 1-2.438-2.296z"/><path fill="#AFB1B3" fill-rule="nonzero" d="M12 .908L7.479 5 5 2.757v-.903h.998l1.482 1.34L11.009 0H12z"/></g></svg>
